public/assets/images/icons/red/export/wizard.svg

<svg width="16" height="16" xmlns="http://www.w3.org/2000/svg" viewBox="0 0 16 16" shape-rendering="geometricPrecision" fill="#cb1800"><defs><mask id="a"><rect fill="#fff" width="100%" height="100%"/><path d="M13.848-1.1L12.051.695l.286.287A4.455 4.455 0 0 0 9.23 5.236v.987h2.626v-.988c0-.491.191-.954.538-1.302l.03-.03 1.425 1.421 3.212-3.213L13.848-1.1z" fill="#000"/></mask></defs><path d="M13.848-.04l-.736.735.821.821h-.234l-.156.008A3.722 3.722 0 0 0 9.98 5.235v.237h1.126v-.237c0-.691.27-1.343.759-1.833a2.579 2.579 0 0 1 1.833-.759h.3l-.886.887.735.734L16 2.111 13.848-.04z"/><g mask="url(#a)"><path d="M14.182 12.821L8.715 7.353l-.834-.833-.833.833-.718.718-.834.834.834.833 5.467 5.467.834.834.833-.834.718-.718.834-.834-.834-.832zm-5.514-2.186L6.921 8.887l.943-.943 1.747 1.747-.943.944zM3.108 8.848l-.507 1.357-1.357.506 1.357.507.507 1.357.507-1.357 1.357-.507-1.357-.506zM4.938 5.26l.715-1.915 1.914-.715-1.914-.715L4.938 0l-.716 1.915-1.914.715 1.914.715zM10.584 6.142l.47-1.257 1.256-.469-1.256-.47-.47-1.256-.469 1.256-1.256.47 1.256.469z"/></g></svg>

<?xml version="1.0"?><!DOCTYPE svg PUBLIC "-//W3C//DTD SVG 1.1//EN" "http://www.w3.org/Graphics/SVG/1.1/DTD/svg11.dtd"><svg width="16px" height="16px" xmlns="http://www.w3.org/2000/svg" viewBox="0 0 16 16" shape-rendering="geometricPrecision" fill="#cb1800"><defs><mask id="export-path"><rect fill="#fff" width="100%" height="100%"/><path d="M13.848-1.1l-1.797,1.795l0.286,0.287c-1.812,0.575-3.107,2.263-3.107,4.254v0.987h2.626 V5.235c0-0.491,0.191-0.954,0.538-1.302c0.01-0.01,0.021-0.02,0.03-0.03l1.425,1.421l3.212-3.213L13.848-1.1z" fill="#000"/></mask></defs><path id="export" display="inline" d="M13.848-0.04l-0.736,0.735l0.821,0.821h-0.234 l-0.156,0.008c-1.978,0.084-3.563,1.714-3.563,3.711v0.237h1.126V5.235c0-0.691,0.27-1.343,0.759-1.833 c0.49-0.489,1.141-0.759,1.833-0.759h0.237V2.643h0.063L13.112,3.53l0.735,0.734L16,2.111L13.848-0.04z" fill="#cb1800"/><g mask="url(#export-path)"><g><path d="M14.182,12.821L8.715,7.353L7.881,6.52L7.048,7.353L6.33,8.071L5.496,8.905L6.33,9.738l5.467,5.467l0.834,0.834 l0.833-0.834l0.718-0.718l0.834-0.834L14.182,12.821z M8.668,10.635L6.921,8.887l0.943-0.943l1.747,1.747L8.668,10.635z"/></g><g><polygon points="3.108,8.848 2.601,10.205 1.244,10.711 2.601,11.218 3.108,12.575 3.615,11.218 4.972,10.711 3.615,10.205"/></g><g><polygon points="4.938,5.26 5.653,3.345 7.567,2.63 5.653,1.915 4.938,0 4.222,1.915 2.308,2.63 4.222,3.345"/></g><g><polygon points="10.584,6.142 11.054,4.885 12.31,4.416 11.054,3.946 10.584,2.69 10.115,3.946 8.859,4.416 10.115,4.885"/></g></g></svg>
